icon/lg/rubygems.svg

<?xml version="1.0" encoding="UTF-8" standalone="no"?>
<svg viewBox="0 0 256 293" version="1.1" xmlns="http://www.w3.org/2000/svg" xmlns:xlink="http://www.w3.org/1999/xlink" preserveAspectRatio="xMidYMid" height="1em" width="1em">
  <g fill="#D34231">
    <path d="M76.7478977,97.4337652 L76.585237,97.2711045 L40.4745594,133.381782 L128.148682,220.893244 L164.25936,184.945227 L215.822805,133.381782 L179.712127,97.2711045 L179.712127,97.1084438 L76.585237,97.1084438 L76.7478977,97.4337652 Z"/>
    <path d="M127.823361,0.975964259 L0.1347034,74.1732837 L0.1347034,220.567923 L127.823361,293.765242 L255.512018,220.567923 L255.512018,74.1732837 L127.823361,0.975964259 L127.823361,0.975964259 Z M231.112911,206.579102 L127.823361,266.112921 L24.5338099,206.579102 L24.5338099,87.8367833 L127.823361,28.3029635 L231.112911,87.8367833 L231.112911,206.579102 L231.112911,206.579102 Z"/>
  </g>
</svg>

<svg width="256" height="293" xmlns="http://www.w3.org/2000/svg" preserveAspectRatio="xMidYMid"><g fill="#D34231"><path d="m76.748 97.434-.163-.163-36.11 36.11 87.674 87.512 36.11-35.948 51.564-51.563-36.11-36.11v-.164H76.584l.163.326Z"/><path d="M127.823.976.135 74.173v146.395l127.688 73.197 127.689-73.197V74.173L127.823.976Zm103.29 205.603-103.29 59.534-103.29-59.534V87.837l103.29-59.534 103.29 59.534v118.742Z"/></g></svg>
